X: 22502
T: Lady Douglas Of Bothwell
R: jig
M: 6/8
K: Eminor
e|:B2E G2E|BGE E2d|B2E G2B|AFD DFd|
B2E G2B|ABG FED|EFE G2A|1 BGE E2e:|2 BGE E2B||
efg f2e|^def B2=d|AFA B/^c/dB|AFD D2B|
efg f2e|^def B2=d|B/^c/dB AFA|BGE E2B|
efg fge|^def B2=d|AFA B/^c/dB|AFD D2B|
GFG EGB|e^de Bge|d^cB AFA|BGE E2||

